X:1
T:Vesti La giubba
T:enf of premier act
T:Vesti La giubba (Paggliaci)
T:Piano Transcription
T:Ruggiero Leoncavallo
T:2019
C:Leonavallo
Z:2019
%%score { ( 1 3 ) | ( 2 4 ) }
L:1/8
Q:1/4=46
M:2/4
K:G
V:1 treble nm="Piano" snm="Pno."
V:3 treble 
V:2 bass 
V:4 bass 
V:1
"^Arioso Adagio"!p! (e2 ^d>G | B2 B)(B/B/ | B2 _B>E | G2 G2) | z!<(! F G>A!<)! | B2 B z/ B/ | %6
!<(! BB cd!<)! | e4 | !>![Gg]2 [Ff]>[Ff] | [=F=f]3 [Ee] | %10
 (!tenuto![^D^d]!tenuto![Ee] !tenuto![B,B]!tenuto![=D=d] | [Dd]2 [Cc]2) | !>![Cc]2 G>A | %13
 (B2 g) z/ d/ | e2 z/ D/D/D/ | [G,B,G]2 z2 | z"_violento" [B,DG] [^A,^CF][B,DG] | %17
!<(! ([^CF^A][DGB] [GBd][Bdg])!<)! |"_poco rit." !>![_Ac_e_a]2 !1!A!4!A |"^a tempo" G2 G z | %20
 z ([B,DF] [DFB][^CE^A] |"_affret." [FBd]2 [E^A^c][DGB] | e/e/) z ^d>^c | f2"_cres. e rit." f2- | %24
 f4 |!f! (!>![Gg]2 !>![Ff]>[Ee] | !>![Gg]2 [Ff]2) | %27
 (3z (!>![Ff]!>![Gg]) (3(!>![Aa]!>![Gg]3/2!>![Ff]/) | !>![Aa]2 [Gg]2 | %29
"_con grande espress." !>!f2 (e>c) | B2 (3(!tenuto!F!tenuto!G!tenuto!A) | [^DFB]2 B!>!B | %32
!>(! [EB]4!>)! |] %33
V:2
 [E,,B,,]2 [B,^DG]2 | [E,,B,,]2 [B,EG]2 | [E,,C,]2 [E,C]2 | B,,,2 B,,2 | A,,,2 A,,2 | %5
 ^G,,,2 ^G,,2 | G,,,2 G,,2 |!<(! C,,G,, C,E,!<)! | B,,,2 B,,2 | A,,,2 A,,2 | [E,,^G,]2 [E,G,]2 | %11
 A,,2 [E,A,]2 | _E,,2 _E,2 | D,,2 D,2 | D,,2 D,2 | [G,,,B,,] !>!G,,2 G,, | G,,, G,,3 | G,,,2 G,,2 | %18
 [=F,,,=F,,]4 | [G,,,G,,]3 z | !>![F,,,F,,]4- | [F,,,F,,]2 F,,2 | B,,,2 B,,2 | B,,,3 z | %24
 !>![A,,A,]!>![F,,F,] !>![^D,,^D,]!>![B,,,B,,] | [A,,,A,,]2 [A,C]2 | [A,,,A,,]2 [A,C]2 | %27
 [C,,C,]2 [A,CF]2 | !>![B,,,B,,]2 [B,E]2 | [A,,,A,,]2 A,2 | B,,,2 B,,2 | B,,,2 B,,2 | [E,,B,,]4 |] %33
V:3
 x4 | x4 | [CEG]4 | [B,E]4 | [CE]4 | [DF]4 | [D=F]4 | [EG]4 | d2 B2 | c4 | x4 | [EA]4 | x4 | %13
 [DG]3 [DB] | [Ec] [CF]3 | x4 | x4 | x4 | x4 | [B,D] ([B,D][^A,^C][B,D]) | x4 | x4 | %22
 [G^c]2 [^DA]2 | [Ac]4 | [A^d]4 | [Ace]2 c2 | [Ac]2 c2 | z2 c2 | [Be]4 | [Fc]2 [EF]2 | %30
 [B,EG]2 [B,E]2 | A,2 [A,^D]2 | x4 |] %33
V:4
 x4 | x4 | x4 | x4 | x4 | x4 | x4 | x4 | x4 | x4 | x4 | x4 | x4 | x4 | x4 | x4 | x4 | x4 | %18
 z ([_A,C_E] [_E,A,C][C,E,A,]) | x4 | x4 | x4 | x4 | z !>![F,F] !>![E,E]!>![C,C] | x4 | x4 | x4 | %27
 x4 | x4 | x4 | x4 | x4 | z [E,^G,]2 [E,G,] |] %33

